X: 109
T:Missa Di dadi / Sanctus
N: Derived from Jos0903d-Missa_Di_dadi-Sanctus.krn
C: Josquin des Prez
%%abc-version 2.0
%%abcx-abcm2ps-target-version 5.9.1 (29 Sep 2008)
%%abc-creator hum2abc beta
%%abcx-conversion-date 2019/02/12 16:15:43
%%abc-edited-by Jesse Rodin
%%abc-edited-by Jesse Rodin; Victoria Chang 2012/01/28
%%abcx-initial-encoding-date 2012/01/28/
%%humdrum-veritas 2615777470
%%humdrum-veritas-data 2494627
%%linebreak <none>
%%barnumbers 0
L: 1/4
M: 3/1
Q: 1/2=120
%%staves [1 2 3 4]
V: 1 clef=treble
V: 2 clef=treble-8
V: 3 clef=treble-8
V: 4 clef=bass
K: F
[V:1] G8G4 | 
[V:2] G6A2B4 | 
[V:3] z12 :
[V:4] z12 | 
[V:1] E4F6GA | 
[V:2] c4A4d4- | 
[V:3] x12 | 
[V:4] z12 | 
[V:1] B6AGB4 | 
[V:2] d4G8 | 
[V:3] z12 :
[V:4] z12 | 
[V:1] A2G4F2E4 | 
[V:2] c12 | 
[V:3] x12 | 
[V:4] z12 | 
[V:1] D2G,2B,3CD4 | 
[V:2] B12 | 
[V:3] G12- :
[V:4] z4z4G,4 | 
[V:1] z2G,2B,3CD4 | 
[V:2] d4G4z4 | 
[V:3] G8B4 | 
[V:4] B,6A,2G,3F, | 
[V:1] E4F8 | 
[V:2] G4A4B4- | 
[V:3] c4d8- :
[V:4] E,4D,8 | 
[V:1] z2B,4A,G,D3E | 
[V:2] B2AGB6c2 | 
[V:3] d12 | 
[V:4] z4G,4B,4- | 
[V:1] F4G8 | 
[V:2] d4z2d4c2 | 
[V:3] z4B4G4 :
[V:4] B,2A,2G,3F,E,4 | 
[V:1] F4z2F2G2B2- | 
[V:2] d8G4 | 
[V:3] A4B8- | 
[V:4] D,8z4 | 
[V:1] BAGFE2D2G4- | 
[V:2] d4z2G6- | 
[V:3] B12 :
[V:4] G,6B,3A,G,F, | 
[V:1] G4F4z2F2 | 
[V:2] G2G2A3GA2B2 | 
[V:3] c4d8- | 
[V:4] E,4D,8 | 
[V:1] G2B2G2B3AG2 | 
[V:2] G3AB2G2B3c | 
[V:3] d12 :
[V:4] z4G,4G,2B,2- | 
[V:1] F2G2A2G4F2 | 
[V:2] d2B2c4z2d2 | 
[V:3] B4A8- | 
[V:4] B,A,G,2F,2E,2D,4 | 
[V:1] E2F4G4^F2 | 
[V:2] c2d3fe2d4 | 
[V:3] A12 :
[V:4] z2D,4C,2D,4 | 
[V:1] G3AB4z4 | 
[V:2] B3cd2d2d2GA | 
[V:3] G12- | 
[V:4] z2G,3A,B,2G,2B,2- | 
[V:1] z2B4AGB2A2 | 
[V:2] Bcd4c2d4- | 
[V:3] G8F4- :
[V:4] B,A,G,F,E,4D,4- | 
[V:1] z2A4A2A3G/A/ | 
[V:2] d4D3EF2D2 | 
[V:3] F12- | 
[V:4] D,4z2D,3E,F,2 | 
[V:1] B2A3GFED4 | 
[V:2] z2D3EF2G2D2 | 
[V:3] F4A4B4 :
[V:4] D,2F,3E,D,C,B,,4 | 
[V:1] A4B8 | 
[V:2] E2F2G3AB2G2 | 
[V:3] c4B4G4- | 
[V:4] A,,4z2G,3A,B,2 | 
[V:1] B,3CD4G,2B2- | 
[V:2] B2G2B2GABcd2- | 
[V:3] G12- :
[V:4] G,2B,2G,2B,3A,G,F, | 
[V:1] BAG2F2A3GF2 | 
[V:2] d2Bcdef3ed2 | 
[V:3] G4A8- | 
[V:4] E,4D,8 | 
[V:1] E2D4G4^F2 | 
[V:2] c2f4e2d2c2 | 
[V:3] A12 :
[V:4] z2D,4C,2D,4 | 
[V:1] G12- | 
[V:2] B2A2G2F2E4 | 
[V:3] G12- | 
[V:4] G,,12- | 
[V:1] G12 ||  
[V:2] D12 ||  
[V:3] G12 ||  
[V:4] G,,12 ||  
[V:1]  [K:F] [K:clef=treble][M:3/1]z12 | 
[V:2]  [K:F] [K:clef=treble-8][M:3/1]G8F4 | 
[V:3]  [K:F] [K:clef=treble-8][M:3/1]z12 | 
[V:4]  [K:F] [K:clef=bass][M:3/1]G,,8D,4 | 
[V:1] z12 | 
[V:2] G4A8 | 
[V:3] z12 | 
[V:4] E,4F,6G,A, | 
[V:1] z12 | 
[V:2] G6d6 | 
[V:3] z12 | 
[V:4] B,6A,G,B,4 | 
[V:1] z12 | 
[V:2] c6f6 | 
[V:3] z12 | 
[V:4] A,8D,2A,2- | 
[V:1] z12 | 
[V:2] e6d6 | 
[V:3] z12 | 
[V:4] A,2G,2E,2G,2F,2D,2 | 
[V:1] z12 | 
[V:2] c6B6 | 
[V:3] z12 | 
[V:4] F,2E,2C,2_E,2D,2B,,2 | 
[V:1] z12 | 
[V:2] A6G6 | 
[V:3] z12 | 
[V:4] D,2C,2A,,2C,2B,,2G,,2 | 
[V:1] z12 | 
[V:2] F6E6 | 
[V:3] z12 | 
[V:4] B,,2A,,3G,,A,,B,,C,2G,,2- | 
[V:1] z12 | 
[V:2] D4d8 | 
[V:3] z12 | 
[V:4] G,,A,,B,,3C,D,3E,F,2- | 
[V:1] z12 | 
[V:2] D4E4F4 | 
[V:3] z12 | 
[V:4] F,2B,,2C,2A,,4D,2 | 
[V:1] z12 | 
[V:2] G4A4B4 | 
[V:3] z12 | 
[V:4] B,,2C,4A,,2G,,2G,2 | 
[V:1] z12 | 
[V:2] c4d4e4 | 
[V:3] z12 | 
[V:4] E,2F,4D,2C,4 | 
[V:1] z12 | 
[V:2] f3ed2c2B2A2 | 
[V:3] z12 | 
[V:4] B,,2D,3E,F,2G,2A,2 | 
[V:1] z12 | 
[V:2] d3cB2A2G2F2 | 
[V:3] z12 | 
[V:4] B,2B,,3C,D,2E,2F,2 | 
[V:1] z12 | 
[V:2] B3AG2F2E2D2 | 
[V:3] z12 | 
[V:4] G,2G,,3A,,B,,2C,2D,2 | 
[V:1] z12 | 
[V:2] B3AG2F2E4 | 
[V:3] z12 | 
[V:4] G,,2D,2E,2D,4^C,2 | 
[V:1] z2D3EF2G2A2 | 
[V:2] D4D4z2d2 | 
[V:3] z12 | 
[V:4] D,8z4 | 
[V:1] D2A2B2A4G2 | 
[V:2] f3ed2c2B4 | 
[V:3] z12 | 
[V:4] z12 | 
[V:1] A8z4 | 
[V:2] A2D3EF2G2A2 | 
[V:3] z12 | 
[V:4] z4z4z2D,2 | 
[V:1] z12 | 
[V:2] D2A2B2A4G2 | 
[V:3] z12 | 
[V:4] F,3E,D,2C,2B,,4 | 
[V:1] z2A2c3BA2G2 | 
[V:2] A4z2A2c3B | 
[V:3] z12 | 
[V:4] A,,8z4 | 
[V:1] c3BAGF3GB2 | 
[V:2] AGF3GB2A2G2 | 
[V:3] z12 | 
[V:4] z12 | 
[V:1] A2G2c3BAGB2- | 
[V:2] c3BAGF2c2d2- | 
[V:3] z12 | 
[V:4] z12 | 
[V:1] B2A2G2F2E4 | 
[V:2] def2e2d4c2 | 
[V:3] z12 | 
[V:4] z12 | 
[V:1] D8z4 | 
[V:2] B3GB2A4d2 | 
[V:3] z12 | 
[V:4] z4z2D,2F,3E, | 
[V:1] z12 | 
[V:2] f3edcB3c_e2 | 
[V:3] z12 | 
[V:4] D,C,B,,3C,_E,2D,2C,2 | 
[V:1] z12 | 
[V:2] d2c2f3edc_e2- | 
[V:3] z12 | 
[V:4] F,3E,D,C,B,,2F,2G,2- | 
[V:1] z12 | 
[V:2] e2d2c2B2A4 | 
[V:3] z12 | 
[V:4] G,A,B,2A,2G,4^F,2 | 
[V:1] z4z2D2F3E | 
[V:2] G8z2d2 | 
[V:3] z12 | 
[V:4] G,8D,4 | 
[V:1] DCB,3C_E2D2C2 | 
[V:2] f3ed2c2B2A2- | 
[V:3] z12 | 
[V:4] z4z4z2F,2- | 
[V:1] F3EDCB,2F2G2- | 
[V:2] A2f3ed3cB2- | 
[V:3] z12 | 
[V:4] F,E,D,C,B,,2B,3A,G,F, | 
[V:1] GAB2A2G4^F2 | 
[V:2] BAG2F2G2A4 | 
[V:3] z12 | 
[V:4] G,3F,D,2_E,2D,4 | 
[V:1] G12 ||  
[V:2] G12 ||  
[V:3] z12 ||  
[V:4] G,,12 ||  
[V:1]  [K:F] [K:clef=treble][M:3/1]G4D2E2F4 | 
[V:2]  [K:F] [K:clef=treble-8][M:3/1]B4B2G2A4 | 
[V:3]  [K:F] [K:clef=treble-8][M:3/1]G4B2c2d4 | 
[V:4]  [K:F] [K:clef=bass][M:3/1]G,4G,2E,2D,4 | 
[V:1] G2D2E2F2D4 | 
[V:2] G4z2d4G2- | 
[V:3] z2B2G2A2B4 | 
[V:4] G,4E,2D,2G,4 | 
[V:1] E2F2D2E2F4 | 
[V:2] G2A2B4c2d2 | 
[V:3] c2d4B2A4 | 
[V:4] E,2D,2G,4F,2D,2 | 
[V:1] G2B4A2F2G2 | 
[V:2] B2G2d8 | 
[V:3] G4F4A2B2 | 
[V:4] _E,4D,4D,2G,2 | 
[V:1] A2B4G4^F2 | 
[V:2] f4B2c2d4 | 
[V:3] c2B2G4A4 | 
[V:4] F,2D,2_E,4D,4 | 
[V:1] G2E2F2G2D2E2 | 
[V:2] B2c2d2B4G2 | 
[V:3] G4z4B4 | 
[V:4] G,,2C,2B,,2G,,2G,4 | 
[V:1] F4A2D2G4 | 
[V:2] A2B2A2d4c2 | 
[V:3] d4c2B4G2 | 
[V:4] F,2D,2F,2G,2_E,4 | 
[V:1] F4E2D2G4 | 
[V:2] d2A2B2A2B2c2 | 
[V:3] A4G2F2E4 | 
[V:4] D,4z2D,4C,2 | 
[V:1] F2G2D2_E2C4 | 
[V:2] F2B4G4^F2 | 
[V:3] D4G4z2A2 | 
[V:4] D,2G,,2B,,2C,2A,,4 | 
[V:1] B,2D2E2F2G2E2 | 
[V:2] G4E2D2d2c2 | 
[V:3] B4c2A2G4 | 
[V:4] G,,4C,2D,2B,,2C,2 | 
[V:1] F2D2E2F2G2E2 | 
[V:2] A2d2c2A2B2G2 | 
[V:3] F4A4G4 | 
[V:4] D,2B,,2C,2D,2B,,2C,2- | 
[V:1] G2F4D2E2F2 | 
[V:2] c2A2B4A4 | 
[V:3] E2F2D2G4F2 | 
[V:4] C,2D,4B,,2C,2D,2 | 
[V:1] D2E4D4^C2 | 
[V:2] G2B2c2d2G4 | 
[V:3] B2G2A2B4G2 | 
[V:4] G,,2G,2F,2D,2E,4 | 
[V:1] D4D2B,2A,4 | 
[V:2] A4z2d4d2- | 
[V:3] F8z4 | 
[V:4] D,8D,4 | 
[V:1] G,2D2E2F2D2E2 | 
[V:2] d4c2A2d2c2 | 
[V:3] B4A2F2G4 | 
[V:4] G,,2B,,2C,2D,2B,,2C,2 | 
[V:1] F4D4E2F2 | 
[V:2] A4G2d2c2A2 | 
[V:3] F4B4A2F2 | 
[V:4] D,4G,,2B,,2C,2D,2 | 
[V:1] D2C2A,2D4^C2 | 
[V:2] B2A2F2A6 | 
[V:3] G2A4F2E4 | 
[V:4] B,,2C,2D,4A,,4 | 
[V:1] D4E2F2G2D2 | 
[V:2] F2G2E2D2d4- | 
[V:3] D2G4F2B4 | 
[V:4] B,,4C,2D,2G,,2G,2- | 
[V:1] B4G2F2D2G2 | 
[V:2] d4c2d4G2 | 
[V:3] G4z2A2B2c2 | 
[V:4] G,2_E,4D,2B,,2E,2 | 
[V:1] F2D2E2F4A2 | 
[V:2] A2B2A2F4c2 | 
[V:3] d4c2B2A4 | 
[V:4] D,2B,,2C,2D,4F,2 | 
[V:1] D2B4A4F2 | 
[V:2] B2d4c2F4 | 
[V:3] G4F4A2B2 | 
[V:4] G,2G,,2D,2F,4D,2 | 
[V:1] E2D4G4^F2 | 
[V:2] G2B4c2d4 | 
[V:3] c2d2B2G2A4 | 
[V:4] C,2B,,2_E,4D,4 | 
[V:1] G12- | 
[V:2] D2_E4D2_E4 | 
[V:3] G12- | 
[V:4] B,,2C,4B,,2C,4 | 
[V:1] G12 ||  
[V:2] D12 ||  
[V:3] G12 ||  
[V:4] G,,12 ||  
[V:1]  [K:F] [K:clef=treble][M:2/1]z8 | 
[V:2]  [K:F] [K:clef=treble-8][M:2/1]z8 | 
[V:3]  [K:F] [K:clef=treble-8][M:2/1]A8- | 
[V:4]  [K:F] [K:clef=bass][M:2/1]D,8- | 
[V:1] z8 | 
[V:2] z8 | 
[V:3] A4B4- | 
[V:4] D,8 | 
[V:1] z8 | 
[V:2] z8 | 
[V:3] B2G2G4- | 
[V:4] G,,8 | 
[V:1] z8 | 
[V:2] z8 | 
[V:3] G4d4- | 
[V:4] G,8 | 
[V:1] z8 | 
[V:2] z8 | 
[V:3] d4e4- | 
[V:4] G,8 | 
[V:1] z8 | 
[V:2] z8 | 
[V:3] e2c2c4- | 
[V:4] A,6F,2 | 
[V:1] z8 | 
[V:2] z8 | 
[V:3] c4f4 | 
[V:4] F,8 | 
[V:1] z8 | 
[V:2] z8 | 
[V:3] d4e4- | 
[V:4] B,4G,4 | 
[V:1] z8 | 
[V:2] z8 | 
[V:3] e2c2c4- | 
[V:4] A,6F,2 | 
[V:1] z8 | 
[V:2] z8 | 
[V:3] c4d4 | 
[V:4] F,8 | 
[V:1] z8 | 
[V:2] z8 | 
[V:3] B4c4- | 
[V:4] G,4E,4 | 
[V:1] z8 | 
[V:2] z8 | 
[V:3] c2A2A4- | 
[V:4] F,6D,2 | 
[V:1] z8 | 
[V:2] z8 | 
[V:3] A4B4 | 
[V:4] D,8 | 
[V:1] z8 | 
[V:2] z8 | 
[V:3] G4A4- | 
[V:4] E,4C,4 | 
[V:1] z8 | 
[V:2] z8 | 
[V:3] A2F2F4- | 
[V:4] D,6B,,2 | 
[V:1] z8 | 
[V:2] z8 | 
[V:3] F4G4 | 
[V:4] B,,8 | 
[V:1] z8 | 
[V:2] z8 | 
[V:3] E4F4- | 
[V:4] C,4A,,4 | 
[V:1] z8 | 
[V:2] z8 | 
[V:3] F2D2D4- | 
[V:4] B,,6G,,2 | 
[V:1] z8 | 
[V:2] z8 | 
[V:3] D4d4- | 
[V:4] G,,8 | 
[V:1] z8 | 
[V:2] z8 | 
[V:3] d4B4 | 
[V:4] G,8 | 
[V:1] z8 | 
[V:2] z8 | 
[V:3] c4d4- | 
[V:4] E,4F,4 | 
[V:1] z8 | 
[V:2] z8 | 
[V:3] d2G2G4- | 
[V:4] G,6C,2 | 
[V:1] z8 | 
[V:2] z8 | 
[V:3] G4c4- | 
[V:4] C,8 | 
[V:1] z8 | 
[V:2] z8 | 
[V:3] c4A4 | 
[V:4] F,8 | 
[V:1] z8 | 
[V:2] z8 | 
[V:3] B4c4- | 
[V:4] D,4E,4 | 
[V:1] z8 | 
[V:2] z8 | 
[V:3] c2F2F4- | 
[V:4] F,6B,,2 | 
[V:1] z8 | 
[V:2] z8 | 
[V:3] F4f4- | 
[V:4] B,,8 | 
[V:1] z8 | 
[V:2] z8 | 
[V:3] f2e2d2c2 | 
[V:4] B,6A,2 | 
[V:1] z8 | 
[V:2] z8 | 
[V:3] d2f2e2d2 | 
[V:4] G,2F,2G,2B,2 | 
[V:1] z8 | 
[V:2] z8 | 
[V:3] c2B2A2G2 | 
[V:4] A,2G,2F,2E,2 | 
[V:1] z8 | 
[V:2] z8 | 
[V:3] A2c2B2A2 | 
[V:4] D,2C,2D,2F,2 | 
[V:1] z8 | 
[V:2] z8 | 
[V:3] G2F2E2D2 | 
[V:4] E,2D,2C,2B,,2 | 
[V:1] z8 | 
[V:2] z8 | 
[V:3] E2G2F2E2 | 
[V:4] A,,2G,,2A,,2C,2 | 
[V:1] z8 | 
[V:2] z8 | 
[V:3] G3FD3E | 
[V:4] B,,2G,,3A,,B,,C, | 
[V:1] z8 | 
[V:2] z8 | 
[V:3] FGA4c2 | 
[V:4] D,4F,2E,2 | 
[V:1] z8 | 
[V:2] z8 | 
[V:3] B2A2c3B | 
[V:4] D,2F,3E,C,2- | 
[V:1] z8 | 
[V:2] z8 | 
[V:3] G3ABcd2- | 
[V:4] C,D,E,F,G,4 | 
[V:1] z8 | 
[V:2] z8 | 
[V:3] d2f2e2d2 | 
[V:4] B,2A,2G,2B,2- | 
[V:1] z8 | 
[V:2] z8 | 
[V:3] f3ec2B2 | 
[V:4] B,A,F,3E,G,2- | 
[V:1] z8 | 
[V:2] z8 | 
[V:3] d3cA2G2 | 
[V:4] G,F,D,3C,_E,2- | 
[V:1] z8 | 
[V:2] z8 | 
[V:3] B3AF2E2 | 
[V:4] E,D,B,,3A,,C,2- | 
[V:1] z8 | 
[V:2] z8 | 
[V:3] G3FD2F2 | 
[V:4] C,B,,G,,2B,,2A,,2 | 
[V:1] z8 | 
[V:2] z8 | 
[V:3] E2G4D2 | 
[V:4] C,4G,,2B,,2 | 
[V:1] z8 | 
[V:2] z8 | 
[V:3] F2E2G2F2 | 
[V:4] A,,2C,2B,,2D,2- | 
[V:1] z8 | 
[V:2] z8 | 
[V:3] A4G2B2 | 
[V:4] D,2C,2E,2D,2 | 
[V:1] z8 | 
[V:2] z8 | 
[V:3] A2c2B2d2- | 
[V:4] F,2E,2G,4 | 
[V:1] z8 | 
[V:2] z8 | 
[V:3] d2D3CDE | 
[V:4] G,,3F,,G,,A,,B,,C, | 
[V:1] z8 | 
[V:2] z8 | 
[V:3] FGABc3B | 
[V:4] D,E,F,3E,C,D, | 
[V:1] z8 | 
[V:2] z8 | 
[V:3] G2B3ABc | 
[V:4] E,F,G,3F,G,E, | 
[V:1] z8 | 
[V:2] z8 | 
[V:3] A2B3ABc | 
[V:4] F,2G,2D,2G,,2 | 
[V:1] z8 | 
[V:2] z8 | 
[V:3] A2B3ABc | 
[V:4] D,2G,,2D,2G,,2 | 
[V:1] z8 | 
[V:2] z8 | 
[V:3] AGB3AG2- | 
[V:4] D,2G,,2B,,2C,2 | 
[V:1] z8 | 
[V:2] z8 | 
[V:3] G2^F2G2B2- | 
[V:4] A,,2D,2z2G,,A,, | 
[V:1] z8 | 
[V:2] z8 | 
[V:3] BABcA2B2- | 
[V:4] B,,C,D,E,F,2G,2- | 
[V:1] z8 | 
[V:2] z8 | 
[V:3] BABcAGB2- | 
[V:4] G,F,G,E,F,E,D,C, | 
[V:1] z8 | 
[V:2] z8 | 
[V:3] BAG4^F2 | 
[V:4] B,,2C,2A,,4 | 
[V:1] z8 ||  
[V:2] z8 ||  
[V:3] G8 ||  
[V:4] G,,8 ||  



